Newaita-dark/apps/22/com.github.dcharles525.pho.svg

<svg height="22" viewBox="0 0 22 22" width="22" xmlns="http://www.w3.org/2000/svg" xmlns:xlink="http://www.w3.org/1999/xlink"><linearGradient id="a"><stop offset="0" stop-opacity=".313726"/><stop offset=".222222" stop-opacity=".27451"/><stop offset="1" stop-opacity="0"/></linearGradient><radialGradient id="b" cx="450.908936" cy="189.579361" gradientTransform="matrix(.00000012 -.0537161 -.0966889 -.00000007 28.335686 43.721789)" gradientUnits="userSpaceOnUse" r="21.166656" xlink:href="#a"/><radialGradient id="c" cx="450.908936" cy="189.579361" gradientTransform="matrix(-.00000012 .0537161 .0966889 .00000007 -8.779455 -5.175144)" gradientUnits="userSpaceOnUse" r="21.166656" xlink:href="#a"/><radialGradient id="d" cx="450.908936" cy="189.579361" gradientTransform="matrix(-.00000012 -.0537161 .0966889 -.00000007 -8.779455 43.721789)" gradientUnits="userSpaceOnUse" r="21.166656" xlink:href="#a"/><radialGradient id="e" cx="450.908936" cy="189.579361" gradientTransform="matrix(.00000012 .0537161 -.0966889 .00000007 28.335685 -5.175144)" gradientUnits="userSpaceOnUse" r="21.166656" xlink:href="#a"/><linearGradient id="f" gradientTransform="matrix(.0026243 0 0 .0429729 9.108071 9.239164)" gradientUnits="userSpaceOnUse" x1="255.323059" x2="255.323044" y1="233.5" y2="254.666656"><stop offset="0" stop-opacity=".27451"/><stop offset="1" stop-opacity="0"/></linearGradient><linearGradient id="g" gradientUnits="userSpaceOnUse" x1="10.9151914" x2="10.9151914" y1="19.3499361" y2="1.89083523513"><stop offset="0" stop-color="#66bb6a"/><stop offset="1" stop-color="#81c784"/></linearGradient><path d="m10.234375 19.273438h1.816406v-.910157h-1.816406zm0 0" fill="url(#b)"/><path d="m9.324219 19.273438h-1.820313v.910156h1.820313zm0 0" fill="url(#c)"/><path d="m9.324219 19.273438h-1.820313v-.910157h1.820313zm0 0" fill="url(#d)"/><path d="m10.234375 19.273438h1.816406v.910156h-1.816406zm0 0" fill="url(#e)"/><path d="m9.324219 19.046875h.910156v1.136719h-.910156zm0 0" fill="url(#f)"/><path d="m12.878906 2.21875c-.867187-.5-2.292968-.035156-2.988281 1.167969-.792969 1.375.746094 3.734375.765625 6.285156-1.257812-2.222656-1.101562-5.03125-2.476562-5.824219-1.203126-.695312-2.671876-.386718-3.171876.480469-.695312 1.203125-.351562 2.113281-.042968 2.582031.308594.464844.308594.464844-.25.433594-.5625-.035156-1.519532.125-2.214844 1.324219-.5.871093-.132812 2.238281 1.167969 2.992187 1.40625.808594 4.003906-1.101562 6.554687-.929687-2.257812 1.433593-5.269531 1.210937-6.097656 2.640625-.691406 1.203125-.382812 2.671875.484375 3.171875 1.203125.695312 2.113281.351562 2.582031.042969.464844-.308594.464844-.308594.433594.25-.035156.558593.125 1.519531 1.324219 2.214843.871093.5 2.238281.132813 2.992187-1.167969.835938-1.453124-1.230468-4.175781-.90625-6.804687 1.59375 2.117187 1.164063 5.507813 2.617188 6.34375 1.300781.753906 2.671875.386719 3.171875-.480469.695312-1.203125.351562-2.113281.042969-2.582031-.308594-.46875-.308594-.46875.25-.433594.558593.035157 1.519531-.125 2.214843-1.328125.5-.867187.03125-2.292968-1.167969-2.988281-1.433593-.824219-3.929687.875-6.601562.761719 2.121094-1.425782 5.328125-1.066406 6.140625-2.472656.753906-1.300782.386719-2.671876-.484375-3.171876-1.199219-.695312-2.109375-.351562-2.578125-.042968s-.46875.308594-.433594-.25c.035157-.5625-.125-1.519532-1.328125-2.214844zm0 0" fill="url(#g)"/><path d="m12.09375 2.019531c-.789062 0-1.695312.484375-2.203125 1.367188-.179687.3125-.238281.671875-.226563 1.074219.015626-.3125.082032-.597657.226563-.847657.695313-1.203125 2.121094-1.667969 2.988281-1.167969 1.042969.601563 1.300782 1.402344 1.328125 1.96875.03125-.5625-.136719-1.507812-1.328125-2.195312-.230468-.132812-.5-.199219-.785156-.199219zm-5.316406 1.445313c-.765625-.003906-1.457032.320312-1.769532.863281-.328124.566406-.425781 1.070313-.402343 1.492187.015625-.371093.128906-.796874.402343-1.265624.5-.867188 1.96875-1.175782 3.171876-.480469 1.375.792969 1.21875 3.601562 2.476562 5.824219 0-.078126 0-.15625-.003906-.238282-1.253906-2.21875-1.101563-5.023437-2.472656-5.8125-.453126-.261718-.941407-.382812-1.402344-.382812zm9.046875.855468c-.515625.003907-.921875.1875-1.183594.363282-.320313.210937-.421875.277344-.441406.117187-.023438.414063.019531.386719.441406.109375.46875-.308594 1.378906-.652344 2.578125.042969.519531.296875.855469.902344.890625 1.617187.035156-.8125-.320313-1.515624-.890625-1.84375-.523438-.304687-.996094-.410156-1.394531-.40625zm-11.21875 3.019532c-.570313-.007813-1.453125.203125-2.105469 1.328125-.160156.28125-.230469.609375-.210938.953125.015626-.261719.085938-.507813.210938-.726563.695312-1.199219 1.652344-1.359375 2.214844-1.324219.453125.027344.539062.03125.386718-.222656-.070312.015625-.195312.007813-.386718-.003906-.035156-.003906-.074219-.003906-.109375-.003906zm12.605469 2.042968c-1.378907-.003906-3.269532.960938-5.285157.992188-.125.070312-.246093.144531-.363281.222656 2.671875.113282 5.167969-1.585937 6.601562-.761718.835938.484374 1.316407 1.324218 1.363282 2.085937.046875-.8125-.441406-1.777344-1.363282-2.3125-.28125-.160156-.601562-.226563-.953124-.226563zm-7.347657 1.5625s-.003906 0-.007812 0c-2.207031 1.199219-4.945313 1.070313-5.730469 2.425782-.28125.492187-.398438 1.027344-.378906 1.523437.019531-.429687.140625-.878906.378906-1.296875.828125-1.429687 3.839844-1.207031 6.097656-2.640625-.117187-.007812-.238281-.011719-.359375-.011719zm1.136719.828126c-.042969 1.976562 1.078125 3.957031 1.140625 5.371093.0625-1.375-1.097656-3.363281-1.140625-5.371093zm5.730469 2.375c-.136719.023437-.066407.128906.136719.4375.164062.246093.335937.617187.359374 1.089843.03125-.582031-.171874-1.03125-.359374-1.316406-.058594-.085937-.101563-.15625-.136719-.210937zm-9.097657 2.542968c-.003906.046875-.007812.09375-.007812.144532-.003906.074218-.007812.160156-.003906.246093.003906-.007812.003906-.011719.003906-.019531.007812-.175781.015625-.296875.007812-.371094zm0 0" fill="#fff" fill-opacity=".392157"/><path d="m14.203125 4.132812c-.007813.175782-.015625.292969 0 .355469 0-.015625.003906-.035156.003906-.054687.003907-.089844.003907-.191406-.003906-.300782zm-4.535156.050782c-.078125 1.316406.855469 3.152344.976562 5.128906.003907.007812.007813.015625.011719.023438-.015625-1.949219-.914062-3.78125-.988281-5.152344zm-5.0625 1.355468c-.042969.605469.164062 1.074219.359375 1.371094.023437.039063.046875.074219.070312.105469.21875-.007813.160156-.09375-.070312-.445313-.15625-.238281-.324219-.585937-.359375-1.03125zm13.5.746094c-.027344.410156-.15625.847656-.402344 1.273438-.8125 1.40625-4.019531 1.050781-6.140625 2.476562.199219.007813.394531.003906.589844-.003906 2.085937-1.035156 4.8125-.851562 5.550781-2.132812.316406-.546876.433594-1.109376.402344-1.613282zm-15.8125 3.058594c-.074219.796875.375 1.738281 1.375 2.316406 1.296875.746094 3.609375-.820312 5.960937-.933594.203125-.101562.402344-.210937.59375-.335937-2.550781-.171875-5.148437 1.742187-6.554687.929687-.863281-.496093-1.3125-1.265624-1.375-1.976562zm8.742187 1.398438c-.03125.25-.039062.5-.03125.75.003906-.136719.015625-.273438.03125-.414063 1.59375 2.117187 1.164063 5.507813 2.617188 6.34375 1.300781.753906 2.671875.386719 3.171875-.480469.34375-.59375.433593-1.113281.398437-1.546875-.027344.355469-.140625.761719-.398437 1.207031-.5.867188-1.871094 1.234376-3.171875.484376-1.453125-.839844-1.023438-4.226563-2.617188-6.34375zm8.488282.894531c-.023438.226562-.085938.4375-.191407.625-.695312 1.203125-1.65625 1.359375-2.214843 1.328125-.511719-.03125-.554688-.035156-.320313.324218.074219-.003906.179687.003907.320313.011719.558593.035157 1.519531-.125 2.214843-1.328125.160157-.277344.21875-.609375.191407-.960937zm-15.773438 2.972656c-.050781.832031.28125 1.597656.859375 1.933594 1.203125.695312 2.113281.351562 2.582031.042969.300782-.199219.40625-.269532.4375-.144532.027344-.5.011719-.492187-.4375-.191406-.46875.308594-1.378906.648438-2.582031-.042969-.5-.289062-.816406-.902343-.859375-1.597656zm3.875 2.1875v.039063c-.035156.558593.125 1.519531 1.324219 2.214843.871093.5 2.238281.132813 2.992187-1.167969.167969-.292968.21875-.636718.195313-1.023437-.019531.25-.078125.480469-.195313.683594-.753906 1.304687-2.121094 1.671875-2.992187 1.167969-1.007813-.582032-1.28125-1.351563-1.324219-1.914063zm0 0" fill-opacity=".235294"/><path d="m299.698653-163.368567c-20.179891-11.635252-53.358541-.818104-69.538814 27.179223-18.452783 31.996944 17.361978 86.900792 17.81648 146.25876-29.269932-51.722333-25.633915-117.079728-57.63086-135.532512-27.997326-16.180273-62.17588-8.99914-73.811133 11.180751-16.180273 27.997326-8.181037 49.177122-.999904 60.085171 7.181132 10.817149 7.181132 10.817149-5.817627 10.089945-13.089659-.818103-35.360259 2.908814-51.540532 30.81524-11.635253 20.270791-3.090614 52.085935 27.179222 69.629714 32.724148 18.816385 93.172921-25.633916 152.530889-21.634298-52.540437 33.360451-122.624654 28.179127-141.895541 61.448678-16.089372 27.997326-8.90824 62.17588 11.271651 73.811133 27.997327 16.180273 49.177122 8.181037 60.085171.999904 10.817149-7.181132 10.817149-7.181132 10.089946 5.817627-.818104 12.998758 2.908813 35.360259 30.815239 51.540532 20.270792 11.635253 52.085935 3.090614 69.629714-27.179222 19.452688-33.814953-28.633629-97.172539-21.088895-158.348515 37.087368 49.268022 27.088323 128.169578 60.903275 147.622266 30.269837 17.543779 62.175881 8.999141 73.811133-11.18075 16.180273-27.997327 8.181037-49.177122.999905-60.085172-7.181133-10.908049-7.181133-10.908049 5.817626-10.089945s35.36026-2.908813 51.540533-30.90614c11.635252-20.179891.727203-53.35854-27.179223-69.538814-33.36045-19.179986-91.445813 20.361692-153.621693 17.72558 49.358922-33.178649 123.988159-24.815812 142.895445-57.539959 17.543779-30.269837 8.99914-62.175881-11.271651-73.811133-27.906426-16.180274-49.086222-8.181037-59.994271-.999905s-10.908049 7.181132-10.089946-5.817626c.818104-13.089659-2.908813-35.36026-30.906139-51.540533zm0 0" fill="none" stroke="#212121" stroke-linecap="round" stroke-linejoin="round" stroke-width="3" transform="matrix(.0429729 0 0 .0429729 0 9.239163)"/></svg>

<?xml version="1.0" encoding="UTF-8"?>
<svg xmlns="http://www.w3.org/2000/svg" xmlns:xlink="http://www.w3.org/1999/xlink" width="22px" height="22px" viewBox="0 0 22 22" version="1.1">
<defs>
<radialGradient id="radial0" gradientUnits="userSpaceOnUse" cx="450.908936" cy="189.579361" fx="450.908936" fy="189.579361" r="21.166656" gradientTransform="matrix(0.000000119742,-0.0537161,-0.0966889,-0.0000000698078,28.335686,43.721789)">
<stop offset="0" style="stop-color:rgb(0%,0%,0%);stop-opacity:0.313726;"/>
<stop offset="0.222222" style="stop-color:rgb(0%,0%,0%);stop-opacity:0.27451;"/>
<stop offset="1" style="stop-color:rgb(0%,0%,0%);stop-opacity:0;"/>
</radialGradient>
<radialGradient id="radial1" gradientUnits="userSpaceOnUse" cx="450.908936" cy="189.579361" fx="450.908936" fy="189.579361" r="21.166656" gradientTransform="matrix(-0.000000119742,0.0537161,0.0966889,0.0000000698078,-8.779455,-5.175144)">
<stop offset="0" style="stop-color:rgb(0%,0%,0%);stop-opacity:0.313726;"/>
<stop offset="0.222222" style="stop-color:rgb(0%,0%,0%);stop-opacity:0.27451;"/>
<stop offset="1" style="stop-color:rgb(0%,0%,0%);stop-opacity:0;"/>
</radialGradient>
<radialGradient id="radial2" gradientUnits="userSpaceOnUse" cx="450.908936" cy="189.579361" fx="450.908936" fy="189.579361" r="21.166656" gradientTransform="matrix(-0.000000119742,-0.0537161,0.0966889,-0.0000000698078,-8.779455,43.721789)">
<stop offset="0" style="stop-color:rgb(0%,0%,0%);stop-opacity:0.313726;"/>
<stop offset="0.222222" style="stop-color:rgb(0%,0%,0%);stop-opacity:0.27451;"/>
<stop offset="1" style="stop-color:rgb(0%,0%,0%);stop-opacity:0;"/>
</radialGradient>
<radialGradient id="radial3" gradientUnits="userSpaceOnUse" cx="450.908936" cy="189.579361" fx="450.908936" fy="189.579361" r="21.166656" gradientTransform="matrix(0.000000119742,0.0537161,-0.0966889,0.0000000698078,28.335685,-5.175144)">
<stop offset="0" style="stop-color:rgb(0%,0%,0%);stop-opacity:0.313726;"/>
<stop offset="0.222222" style="stop-color:rgb(0%,0%,0%);stop-opacity:0.27451;"/>
<stop offset="1" style="stop-color:rgb(0%,0%,0%);stop-opacity:0;"/>
</radialGradient>
<linearGradient id="linear0" gradientUnits="userSpaceOnUse" x1="255.323059" y1="233.5" x2="255.323044" y2="254.666656" gradientTransform="matrix(0.0026243,0,0,0.0429729,9.108071,9.239164)">
<stop offset="0" style="stop-color:rgb(0%,0%,0%);stop-opacity:0.27451;"/>
<stop offset="1" style="stop-color:rgb(0%,0%,0%);stop-opacity:0;"/>
</linearGradient>
<linearGradient id="linear1" gradientUnits="userSpaceOnUse" x1="254" y1="233.5" x2="254" y2="-168.666672" gradientTransform="matrix(0.0434126,0,0,0.0434126,-0.111609,9.213094)">
<stop offset="0" style="stop-color:rgb(40.000001%,73.333335%,41.568628%);stop-opacity:1;"/>
<stop offset="1" style="stop-color:rgb(50.588238%,78.039217%,51.764709%);stop-opacity:1;"/>
</linearGradient>
</defs>
<g id="surface1">
<path style=" stroke:none;fill-rule:nonzero;fill:url(#radial0);" d="M 10.234375 19.273438 L 12.050781 19.273438 L 12.050781 18.363281 L 10.234375 18.363281 Z M 10.234375 19.273438 "/>
<path style=" stroke:none;fill-rule:nonzero;fill:url(#radial1);" d="M 9.324219 19.273438 L 7.503906 19.273438 L 7.503906 20.183594 L 9.324219 20.183594 Z M 9.324219 19.273438 "/>
<path style=" stroke:none;fill-rule:nonzero;fill:url(#radial2);" d="M 9.324219 19.273438 L 7.503906 19.273438 L 7.503906 18.363281 L 9.324219 18.363281 Z M 9.324219 19.273438 "/>
<path style=" stroke:none;fill-rule:nonzero;fill:url(#radial3);" d="M 10.234375 19.273438 L 12.050781 19.273438 L 12.050781 20.183594 L 10.234375 20.183594 Z M 10.234375 19.273438 "/>
<path style=" stroke:none;fill-rule:nonzero;fill:url(#linear0);" d="M 9.324219 19.046875 L 10.234375 19.046875 L 10.234375 20.183594 L 9.324219 20.183594 Z M 9.324219 19.046875 "/>
<path style=" stroke:none;fill-rule:nonzero;fill:url(#linear1);" d="M 12.878906 2.21875 C 12.011719 1.71875 10.585938 2.183594 9.890625 3.386719 C 9.097656 4.761719 10.636719 7.121094 10.65625 9.671875 C 9.398438 7.449219 9.554688 4.640625 8.179688 3.847656 C 6.976562 3.152344 5.507812 3.460938 5.007812 4.328125 C 4.3125 5.53125 4.65625 6.441406 4.964844 6.910156 C 5.273438 7.375 5.273438 7.375 4.714844 7.34375 C 4.152344 7.308594 3.195312 7.46875 2.5 8.667969 C 2 9.539062 2.367188 10.90625 3.667969 11.660156 C 5.074219 12.46875 7.671875 10.558594 10.222656 10.730469 C 7.964844 12.164062 4.953125 11.941406 4.125 13.371094 C 3.433594 14.574219 3.742188 16.042969 4.609375 16.542969 C 5.8125 17.238281 6.722656 16.894531 7.191406 16.585938 C 7.65625 16.277344 7.65625 16.277344 7.625 16.835938 C 7.589844 17.394531 7.75 18.355469 8.949219 19.050781 C 9.820312 19.550781 11.1875 19.183594 11.941406 17.882812 C 12.777344 16.429688 10.710938 13.707031 11.035156 11.078125 C 12.628906 13.195312 12.199219 16.585938 13.652344 17.421875 C 14.953125 18.175781 16.324219 17.808594 16.824219 16.941406 C 17.519531 15.738281 17.175781 14.828125 16.867188 14.359375 C 16.558594 13.890625 16.558594 13.890625 17.117188 13.925781 C 17.675781 13.960938 18.636719 13.800781 19.332031 12.597656 C 19.832031 11.730469 19.363281 10.304688 18.164062 9.609375 C 16.730469 8.785156 14.234375 10.484375 11.5625 10.371094 C 13.683594 8.945312 16.890625 9.304688 17.703125 7.898438 C 18.457031 6.597656 18.089844 5.226562 17.21875 4.726562 C 16.019531 4.03125 15.109375 4.375 14.640625 4.683594 C 14.171875 4.992188 14.171875 4.992188 14.207031 4.433594 C 14.242188 3.871094 14.082031 2.914062 12.878906 2.21875 Z M 12.878906 2.21875 "/>
<path style=" stroke:none;fill-rule:nonzero;fill:rgb(100%,100%,100%);fill-opacity:0.392157;" d="M 12.09375 2.019531 C 11.304688 2.019531 10.398438 2.503906 9.890625 3.386719 C 9.710938 3.699219 9.652344 4.058594 9.664062 4.460938 C 9.679688 4.148438 9.746094 3.863281 9.890625 3.613281 C 10.585938 2.410156 12.011719 1.945312 12.878906 2.445312 C 13.921875 3.046875 14.179688 3.847656 14.207031 4.414062 C 14.238281 3.851562 14.070312 2.90625 12.878906 2.21875 C 12.648438 2.085938 12.378906 2.019531 12.09375 2.019531 Z M 6.777344 3.464844 C 6.011719 3.460938 5.320312 3.785156 5.007812 4.328125 C 4.679688 4.894531 4.582031 5.398438 4.605469 5.820312 C 4.621094 5.449219 4.734375 5.023438 5.007812 4.554688 C 5.507812 3.6875 6.976562 3.378906 8.179688 4.074219 C 9.554688 4.867188 9.398438 7.675781 10.65625 9.898438 C 10.65625 9.820312 10.65625 9.742188 10.652344 9.660156 C 9.398438 7.441406 9.550781 4.636719 8.179688 3.847656 C 7.726562 3.585938 7.238281 3.464844 6.777344 3.464844 Z M 15.824219 4.320312 C 15.308594 4.324219 14.902344 4.507812 14.640625 4.683594 C 14.320312 4.894531 14.21875 4.960938 14.199219 4.800781 C 14.175781 5.214844 14.21875 5.1875 14.640625 4.910156 C 15.109375 4.601562 16.019531 4.257812 17.21875 4.953125 C 17.738281 5.25 18.074219 5.855469 18.109375 6.570312 C 18.144531 5.757812 17.789062 5.054688 17.21875 4.726562 C 16.695312 4.421875 16.222656 4.316406 15.824219 4.320312 Z M 4.605469 7.339844 C 4.035156 7.332031 3.152344 7.542969 2.5 8.667969 C 2.339844 8.949219 2.269531 9.277344 2.289062 9.621094 C 2.304688 9.359375 2.375 9.113281 2.5 8.894531 C 3.195312 7.695312 4.152344 7.535156 4.714844 7.570312 C 5.167969 7.597656 5.253906 7.601562 5.101562 7.347656 C 5.03125 7.363281 4.90625 7.355469 4.714844 7.34375 C 4.679688 7.339844 4.640625 7.339844 4.605469 7.339844 Z M 17.210938 9.382812 C 15.832031 9.378906 13.941406 10.34375 11.925781 10.375 C 11.800781 10.445312 11.679688 10.519531 11.5625 10.597656 C 14.234375 10.710938 16.730469 9.011719 18.164062 9.835938 C 19 10.320312 19.480469 11.160156 19.527344 11.921875 C 19.574219 11.109375 19.085938 10.144531 18.164062 9.609375 C 17.882812 9.449219 17.5625 9.382812 17.210938 9.382812 Z M 9.863281 10.945312 C 9.863281 10.945312 9.859375 10.945312 9.855469 10.945312 C 7.648438 12.144531 4.910156 12.015625 4.125 13.371094 C 3.84375 13.863281 3.726562 14.398438 3.746094 14.894531 C 3.765625 14.464844 3.886719 14.015625 4.125 13.597656 C 4.953125 12.167969 7.964844 12.390625 10.222656 10.957031 C 10.105469 10.949219 9.984375 10.945312 9.863281 10.945312 Z M 11 11.773438 C 10.957031 13.75 12.078125 15.730469 12.140625 17.144531 C 12.203125 15.769531 11.042969 13.78125 11 11.773438 Z M 16.730469 14.148438 C 16.59375 14.171875 16.664062 14.277344 16.867188 14.585938 C 17.03125 14.832031 17.203125 15.203125 17.226562 15.675781 C 17.257812 15.09375 17.054688 14.644531 16.867188 14.359375 C 16.808594 14.273438 16.765625 14.203125 16.730469 14.148438 Z M 7.632812 16.691406 C 7.628906 16.738281 7.625 16.785156 7.625 16.835938 C 7.621094 16.910156 7.617188 16.996094 7.621094 17.082031 C 7.625 17.074219 7.625 17.070312 7.625 17.0625 C 7.632812 16.886719 7.640625 16.765625 7.632812 16.691406 Z M 7.632812 16.691406 "/>
<path style=" stroke:none;fill-rule:nonzero;fill:rgb(0%,0%,0%);fill-opacity:0.235294;" d="M 14.203125 4.132812 C 14.195312 4.308594 14.1875 4.425781 14.203125 4.488281 C 14.203125 4.472656 14.207031 4.453125 14.207031 4.433594 C 14.210938 4.34375 14.210938 4.242188 14.203125 4.132812 Z M 9.667969 4.183594 C 9.589844 5.5 10.523438 7.335938 10.644531 9.3125 C 10.648438 9.320312 10.652344 9.328125 10.65625 9.335938 C 10.640625 7.386719 9.742188 5.554688 9.667969 4.183594 Z M 4.605469 5.539062 C 4.5625 6.144531 4.769531 6.613281 4.964844 6.910156 C 4.988281 6.949219 5.011719 6.984375 5.035156 7.015625 C 5.253906 7.007812 5.195312 6.921875 4.964844 6.570312 C 4.808594 6.332031 4.640625 5.984375 4.605469 5.539062 Z M 18.105469 6.285156 C 18.078125 6.695312 17.949219 7.132812 17.703125 7.558594 C 16.890625 8.964844 13.683594 8.609375 11.5625 10.035156 C 11.761719 10.042969 11.957031 10.039062 12.152344 10.03125 C 14.238281 8.996094 16.964844 9.179688 17.703125 7.898438 C 18.019531 7.351562 18.136719 6.789062 18.105469 6.285156 Z M 2.292969 9.34375 C 2.21875 10.140625 2.667969 11.082031 3.667969 11.660156 C 4.964844 12.40625 7.277344 10.839844 9.628906 10.726562 C 9.832031 10.625 10.03125 10.515625 10.222656 10.390625 C 7.671875 10.21875 5.074219 12.132812 3.667969 11.320312 C 2.804688 10.824219 2.355469 10.054688 2.292969 9.34375 Z M 11.035156 10.742188 C 11.003906 10.992188 10.996094 11.242188 11.003906 11.492188 C 11.007812 11.355469 11.019531 11.21875 11.035156 11.078125 C 12.628906 13.195312 12.199219 16.585938 13.652344 17.421875 C 14.953125 18.175781 16.324219 17.808594 16.824219 16.941406 C 17.167969 16.347656 17.257812 15.828125 17.222656 15.394531 C 17.195312 15.75 17.082031 16.15625 16.824219 16.601562 C 16.324219 17.46875 14.953125 17.835938 13.652344 17.085938 C 12.199219 16.246094 12.628906 12.859375 11.035156 10.742188 Z M 19.523438 11.636719 C 19.5 11.863281 19.4375 12.074219 19.332031 12.261719 C 18.636719 13.464844 17.675781 13.621094 17.117188 13.589844 C 16.605469 13.558594 16.5625 13.554688 16.796875 13.914062 C 16.871094 13.910156 16.976562 13.917969 17.117188 13.925781 C 17.675781 13.960938 18.636719 13.800781 19.332031 12.597656 C 19.492188 12.320312 19.550781 11.988281 19.523438 11.636719 Z M 3.75 14.609375 C 3.699219 15.441406 4.03125 16.207031 4.609375 16.542969 C 5.8125 17.238281 6.722656 16.894531 7.191406 16.585938 C 7.492188 16.386719 7.597656 16.316406 7.628906 16.441406 C 7.65625 15.941406 7.640625 15.949219 7.191406 16.25 C 6.722656 16.558594 5.8125 16.898438 4.609375 16.207031 C 4.109375 15.917969 3.792969 15.304688 3.75 14.609375 Z M 7.625 16.796875 C 7.625 16.808594 7.625 16.824219 7.625 16.835938 C 7.589844 17.394531 7.75 18.355469 8.949219 19.050781 C 9.820312 19.550781 11.1875 19.183594 11.941406 17.882812 C 12.109375 17.589844 12.160156 17.246094 12.136719 16.859375 C 12.117188 17.109375 12.058594 17.339844 11.941406 17.542969 C 11.1875 18.847656 9.820312 19.214844 8.949219 18.710938 C 7.941406 18.128906 7.667969 17.359375 7.625 16.796875 Z M 7.625 16.796875 "/>
<path style="fill:none;stroke-width:3;stroke-linecap:round;stroke-linejoin:round;stroke:rgb(12.941177%,12.941177%,12.941177%);stroke-opacity:1;stroke-miterlimit:4;" d="M 299.698653 -163.368567 C 279.518762 -175.003819 246.340112 -164.186671 230.159839 -136.189344 C 211.707056 -104.1924 247.521817 -49.288552 247.976319 10.069416 C 218.706387 -41.652917 222.342404 -107.010312 190.345459 -125.463096 C 162.348133 -141.643369 128.169579 -134.462236 116.534326 -114.282345 C 100.354053 -86.285019 108.353289 -65.105223 115.534422 -54.197174 C 122.715554 -43.380025 122.715554 -43.380025 109.716795 -44.107229 C 96.627136 -44.925332 74.356536 -41.198415 58.176263 -13.291989 C 46.54101 6.978802 55.085649 38.793946 85.355485 56.337725 C 118.079633 75.15411 178.528406 30.703809 237.886374 34.703427 C 185.345937 68.063878 115.26172 62.882554 95.990833 96.152105 C 79.901461 124.149431 87.082593 158.327985 107.262484 169.963238 C 135.259811 186.143511 156.439606 178.144275 167.347655 170.963142 C 178.164804 163.78201 178.164804 163.78201 177.437601 176.780769 C 176.619497 189.779527 180.346414 212.141028 208.25284 228.321301 C 228.523632 239.956554 260.338775 231.411915 277.882554 201.142079 C 297.335242 167.327126 249.248925 103.96954 256.793659 42.793564 C 293.881027 92.061586 283.881982 170.963142 317.696934 190.41583 C 347.966771 207.959609 379.872815 199.414971 391.508067 179.23508 C 407.68834 151.237753 399.689104 130.057958 392.507972 119.149908 C 385.326839 108.241859 385.326839 108.241859 398.325598 109.059963 C 411.324357 109.878067 433.685858 106.15115 449.866131 78.153823 C 461.501383 57.973932 450.593334 24.795283 422.686908 8.615009 C 389.326458 -10.564977 331.241095 28.976701 269.065215 26.340589 C 318.424137 -6.83806 393.053374 1.524777 411.96066 -31.19937 C 429.504439 -61.469207 420.9598 -93.375251 400.689009 -105.010503 C 372.782583 -121.190777 351.602787 -113.19154 340.694738 -106.010408 C 329.786689 -98.829276 329.786689 -98.829276 330.604792 -111.828034 C 331.422896 -124.917693 327.695979 -147.188294 299.698653 -163.368567 Z M 299.698653 -163.368567 " transform="matrix(0.0429729,0,0,0.0429729,0,9.239163)"/>
</g>
</svg>
